flaticon/productivity/browser-8.svg

<svg xmlns="http://www.w3.org/2000/svg" width="32" height="32" viewBox="0 0 24 24">
    <path d="M4.078125 2.75L5.089844 2.75 5.089844 3.9375 4.078125 3.9375zM6.21875 2.75L7.230469 2.75 7.230469 3.9375 6.21875 3.9375zM8.359375 2.75L9.371094 2.75 9.371094 3.9375 8.359375 3.9375zM12.699219 9.519531L12.699219 8.5 11.6875 8.5 11.6875 9.519531C11.105469 9.605469 10.570312 9.832031 10.117188 10.167969L9.398438 9.449219 8.683594 10.164062 9.402344 10.886719C9.066406 11.335938 8.835938 11.871094 8.75 12.453125L7.734375 12.453125 7.734375 13.464844 8.75 13.464844C8.835938 14.046875 9.066406 14.582031 9.402344 15.035156L8.683594 15.753906 9.398438 16.46875 10.117188 15.75C10.570312 16.085938 11.105469 16.316406 11.6875 16.402344L11.6875 17.417969 12.699219 17.417969 12.699219 16.402344C13.28125 16.316406 13.816406 16.085938 14.269531 15.75L14.988281 16.46875 15.703125 15.753906 14.984375 15.035156C15.320312 14.582031 15.550781 14.046875 15.632812 13.464844L16.648438 13.464844 16.648438 12.453125 15.632812 12.453125C15.550781 11.871094 15.320312 11.335938 14.984375 10.886719L15.703125 10.164062 14.988281 9.449219 14.265625 10.167969C13.816406 9.832031 13.28125 9.605469 12.699219 9.519531zM14.660156 12.960938C14.660156 14.320312 13.550781 15.425781 12.191406 15.425781 10.832031 15.425781 9.726562 14.320312 9.726562 12.960938 9.726562 11.601562 10.832031 10.492188 12.191406 10.492188 13.550781 10.492188 14.660156 11.601562 14.660156 12.960938zM14.660156 12.960938"/>
    <path d="M 0 0 L 0 24 L 24 24 L 24 0 Z M 22.867188 22.867188 L 1.132812 22.867188 L 1.132812 1.132812 L 22.867188 1.132812 Z M 22.867188 22.867188"/>
    <path d="M 20.570312 3.429688 L 12.414062 3.429688 L 10.757812 5.65625 L 3.429688 5.65625 L 3.429688 20.570312 L 20.570312 20.570312 Z M 19.441406 19.441406 L 4.558594 19.441406 L 4.558594 6.785156 L 11.324219 6.785156 L 12.984375 4.558594 L 19.441406 4.558594 Z M 19.441406 19.441406"/>
</svg>

<svg xmlns="http://www.w3.org/2000/svg" width="32" height="32" viewBox="0 0 24 24">
    <path d="M4.078 2.75H5.09v1.188H4.078zm0 0M6.219 2.75H7.23v1.188H6.22zm0 0M8.36 2.75H9.37v1.188H8.36zm0 0M12.7 9.52V8.5h-1.012v1.02a3.485 3.485 0 0 0-1.57.648l-.72-.719-.714.715.718.723c-.336.449-.566.984-.652 1.566H7.734v1.012H8.75a3.49 3.49 0 0 0 .652 1.57l-.718.719.714.715.72-.719a3.49 3.49 0 0 0 1.57.652v1.016h1.011v-1.016a3.49 3.49 0 0 0 1.57-.652l.72.719.714-.715-.719-.719c.336-.453.567-.988.649-1.57h1.015v-1.012h-1.015a3.41 3.41 0 0 0-.649-1.566l.72-.723-.716-.715-.722.719a3.452 3.452 0 0 0-1.567-.648zm1.96 3.44a2.467 2.467 0 1 1-2.469-2.469c1.36.001 2.47 1.11 2.47 2.47zm0 0"/>
    <path d="M0 0v24h24V0zm22.867 22.867H1.133V1.133h21.734zm0 0"/>
    <path d="M20.57 3.43h-8.156l-1.656 2.226H3.43V20.57h17.14zM19.441 19.44H4.56V6.785h6.765l1.66-2.226h6.457zm0 0"/>
</svg>
